X: 1
T: Gianna
C: by David A. Kaynor, 2019
R: reel
S: https://natunelist.net/gianna/ 2021-6-7
B: David A. Kaynor "Living Music and Dance" 2021
Z: 2021 John Chambers <jc:trillian.mit.edu>
M: 4/4
L: 1/8
K: G
|: DC |\
"G"B,D G2 G2DC | B,D G2 G2AB | "C"c3A "Am"BGAG |\
[1,3 "D"FDED D2 :|[2,4 "D"DGGF "G"G2 :|
|: ef | "G"g3a g2Bc | dgag \
[1,3 g2fg | "Am"a3b aeag | fded "D"d2 :|\
[2,4 "Em"g2AB | "C"c3A "Am"BGAG | "D"DGGF "G"G2 :|
